icon-svg/ewelink.svg

<svg xmlns="http://www.w3.org/2000/svg" viewBox="0 0 24 24"><path fill="#44739e" d="M21.609 9.4a17 17 0 0 1-.67 1.6c-.209.436-.457.9-.758 1.42l-.158.274.265.172c.517.336.949.637 1.321.922l.155.121a10 10 0 0 0 .172-1.845v-.128a10 10 0 0 0-.327-2.536m-1.832 4.33-.274-.179-.18.273a34 34 0 0 1-2.7 3.54l-.107.124.034.162a38 38 0 0 1 .51 2.967 9.97 9.97 0 0 0 4.44-5.635q-.24-.2-.5-.394c-.359-.277-.76-.558-1.223-.858M11.052 6l-.287.172c-.685.411-1.381.863-2.069 1.346l-.6.422.716.172c.558.135 1.144.29 1.739.46.47.134.952.283 1.473.454l.735.242-.337-.7a34 34 0 0 0-1.2-2.276Zm.348-1.355.265-.139a19 19 0 0 1 4.287-1.688A9.9 9.9 0 0 0 12 2a10 10 0 0 0-2.314.272 23 23 0 0 1 1.55 2.121Zm6.879 8.938.177-.264.2-.3-.31-.176a33 33 0 0 0-3.051-1.509l-.708-.307.269.726a42 42 0 0 1 1.225 3.892l.166.63.409-.5a34 34 0 0 0 1.623-2.192m-6.35-8.076.173.3A37 37 0 0 1 14 9.617l.056.129.13.05A35 35 0 0 1 18.885 12l.284.162.164-.283c.28-.486.51-.918.7-1.321a13 13 0 0 0 1-2.77 10 10 0 0 0-3.668-4.22 15.8 15.8 0 0 0-5.129 1.776Zm-8.116 4.68c.416-.387.87-.792 1.352-1.2l.557-.476L5 8.4a40 40 0 0 0-2.192-.241 9.9 9.9 0 0 0-.744 3.75 43 43 0 0 1 1.749-1.722m2.969-2.511.118-.089a36 36 0 0 1 3.33-2.273l.295-.178-.19-.289a21 21 0 0 0-1.7-2.261 9.97 9.97 0 0 0-5.357 4.587c1.085.1 2.209.26 3.36.476Zm8.905 10.75-.451.471a44 44 0 0 1-1.784 1.756c-.446.415-.9.819-1.35 1.2l-.169.147H12a9.9 9.9 0 0 0 4.09-.878 34 34 0 0 0-.291-2.05Zm-.387-1.088.116-.128-.039-.169a41 41 0 0 0-.97-3.508c-.308-.939-.665-1.9-1.061-2.868l-.055-.136-.138-.05a42 42 0 0 0-2.877-.935 41 41 0 0 0-3.086-.759l-.15-.031-.12.1a41 41 0 0 0-2.426 2.078 40 40 0 0 0-2.352 2.385 9.94 9.94 0 0 0 8.336 8.572 41 41 0 0 0 2.293-1.971 42 42 0 0 0 2.529-2.58m-3.889 1.476a4.94 4.94 0 0 1-2.364.515 4.42 4.42 0 0 1-3.409-1.37 4.9 4.9 0 0 1-1.115-3.465 3.82 3.82 0 0 1 .937-2.43 4.25 4.25 0 0 1 3.428-1.586 4.4 4.4 0 0 1 3.512 1.446 3.47 3.47 0 0 1 1.045 2.707c0 .247-.013.914-.013.914H6.7a2.84 2.84 0 0 0 .448 1.251 2.4 2.4 0 0 0 1.539.912 1.9 1.9 0 0 0 .924-.1 4 4 0 0 0 .565-.242 3 3 0 0 0 .483-.349 3.6 3.6 0 0 0 .414-.4l1.752.863c.002.277-.577.933-1.411 1.334Zm-1.136-4.965c0 .02.883 0 .883 0 .054-.214-.156-.52-.658-.98a2.66 2.66 0 0 0-1.985-.453 2.35 2.35 0 0 0-1.757 1.459l1.062-.009Z"/></svg>

<?xml version="1.0" encoding="UTF-8"?>
<svg width="24px" fill="#44739e" height="24px" viewBox="0 0 24 24" version="1.1" xmlns="http://www.w3.org/2000/svg" xmlns:xlink="http://www.w3.org/1999/xlink">
            <path d="m 21.609,9.4 a 16.5,16.5 0 0 1 -0.67,1.6 c -0.209,0.436 -0.457,0.9 -0.758,1.42 l -0.158,0.274 0.265,0.172 c 0.517,0.336 0.949,0.637 1.321,0.922 l 0.155,0.121 a 10.018,10.018 0 0 0 0.172,-1.845 V 11.936 A 9.947,9.947 0 0 0 21.609,9.4 Z m -1.832,4.33 -0.274,-0.179 -0.18,0.273 a 34.253,34.253 0 0 1 -2.7,3.54 l -0.107,0.124 0.034,0.162 c 0.217,1.025 0.387,2.017 0.51,2.967 A 9.966,9.966 0 0 0 21.5,14.982 Q 21.26,14.782 21,14.588 C 20.641,14.311 20.24,14.03 19.777,13.73 Z M 11.052,6 10.765,6.172 C 10.08,6.583 9.384,7.035 8.696,7.518 l -0.6,0.422 0.716,0.172 c 0.558,0.135 1.144,0.29 1.739,0.46 0.47,0.134 0.952,0.283 1.473,0.454 l 0.735,0.242 -0.337,-0.7 C 12.047,7.787 11.643,7.022 11.222,6.292 Z M 11.4,4.645 11.665,4.506 A 19.037,19.037 0 0 1 15.952,2.818 9.9,9.9 0 0 0 12,2 v 0 a 9.91,9.91 0 0 0 -2.314,0.272 23.23,23.23 0 0 1 1.55,2.121 z m 6.879,8.938 c 0.06,-0.088 0.118,-0.176 0.177,-0.264 l 0.2,-0.3 -0.31,-0.176 a 32.615,32.615 0 0 0 -3.051,-1.509 l -0.708,-0.307 0.269,0.726 c 0.185,0.5 0.352,0.98 0.51,1.467 0.258,0.79 0.5,1.6 0.715,2.425 l 0.166,0.63 0.409,-0.5 c 0.583,-0.727 1.129,-1.462 1.623,-2.192 z m -6.35,-8.076 0.173,0.3 A 36.944,36.944 0 0 1 14,9.617 l 0.056,0.129 0.13,0.05 A 34.841,34.841 0 0 1 18.885,12 l 0.284,0.162 0.164,-0.283 c 0.28,-0.486 0.51,-0.918 0.7,-1.321 a 13.083,13.083 0 0 0 1,-2.77 9.984,9.984 0 0 0 -3.668,-4.22 15.75,15.75 0 0 0 -5.129,1.776 z m -8.116,4.68 C 4.229,9.8 4.683,9.395 5.165,8.987 L 5.722,8.511 5,8.4 C 4.251,8.3 3.52,8.214 2.808,8.159 a 9.9,9.9 0 0 0 -0.744,3.75 C 2.625,11.324 3.213,10.745 3.813,10.187 Z M 6.782,7.676 6.9,7.587 A 36.092,36.092 0 0 1 10.23,5.314 L 10.525,5.136 10.335,4.847 A 21.063,21.063 0 0 0 8.635,2.586 9.965,9.965 0 0 0 3.278,7.173 c 1.085,0.1 2.209,0.26 3.36,0.476 z m 8.905,10.75 -0.451,0.471 c -0.569,0.593 -1.169,1.184 -1.784,1.756 -0.446,0.415 -0.9,0.819 -1.35,1.2 L 11.933,22 H 12 a 9.9,9.9 0 0 0 4.09,-0.878 c -0.075,-0.676 -0.172,-1.361 -0.291,-2.05 z M 15.3,17.338 15.416,17.21 15.377,17.041 c -0.28,-1.214 -0.607,-2.394 -0.97,-3.508 -0.308,-0.939 -0.665,-1.9 -1.061,-2.868 l -0.055,-0.136 -0.138,-0.05 C 12.211,10.134 11.243,9.82 10.276,9.544 9.254,9.25 8.214,8.995 7.19,8.785 L 7.04,8.754 6.92,8.854 C 6.065,9.531 5.249,10.23 4.494,10.932 3.701,11.669 2.911,12.471 2.142,13.317 a 9.941,9.941 0 0 0 8.336,8.572 c 0.818,-0.654 1.589,-1.316 2.293,-1.971 0.868,-0.813 1.72,-1.679 2.529,-2.58 z m -3.889,1.476 a 4.937,4.937 0 0 1 -2.364,0.515 4.423,4.423 0 0 1 -3.409,-1.37 4.91,4.91 0 0 1 -1.115,-3.465 3.819,3.819 0 0 1 0.937,-2.43 4.249,4.249 0 0 1 3.428,-1.586 4.393,4.393 0 0 1 3.512,1.446 3.466,3.466 0 0 1 1.045,2.707 c 0,0.247 -0.013,0.914 -0.013,0.914 0,0 -0.412,0 -0.736,0 H 6.7 a 2.838,2.838 0 0 0 0.448,1.251 2.393,2.393 0 0 0 1.539,0.912 1.924,1.924 0 0 0 0.924,-0.1 3.969,3.969 0 0 0 0.565,-0.242 2.847,2.847 0 0 0 0.483,-0.349 3.632,3.632 0 0 0 0.414,-0.4 l 1.752,0.863 c 0.002,0.277 -0.577,0.933 -1.411,1.334 z m -1.136,-4.965 c 0,0.02 0.883,0 0.883,0 0.054,-0.214 -0.156,-0.52 -0.658,-0.98 A 2.658,2.658 0 0 0 8.515,12.416 2.348,2.348 0 0 0 6.758,13.875 L 7.82,13.866 Z"/>

</svg>
